X: 2032
T: Araganu Air
C:Pete Richens and Sandy Gibney
B: steve tunes
M:3/4
Q: 1/4=100
K:Em
V:1 
|:"Em"EFG4|EFGBHe2|EFGBef|"C"He4fe|"D"d4A2|"Em"B4AG "D"FGFG|"Em"E6-|E6:|
|:"C"e4fe|"D"d4A2|"Em"B6|BA GA Bd|"C"e4fe|"D"d4A2|"Em"B4 AG|"D"FG FG "Em"E2-|E6-| E6 :|
W: 
% abcbook-tune_id 62a420d1186d0a02daac7059


% abcbook-boost 0
% abcbook-tablature 
% abcbook-transpose 
% abcbook-lastupdated 1655015977872
% abcbook-soundfonts 
% abcbook-repeats 3


